candle.svg

<svg  viewBox="0 0 24 24" fill="currentColor"><path  d="M12.5,2C10.84,2 9.5,5.34 9.5,7A3,3 0 0,0 12.5,10A3,3 0 0,0 15.5,7C15.5,5.34 14.16,2 12.5,2M12.5,6.5A1,1 0 0,1 13.5,7.5A1,1 0 0,1 12.5,8.5A1,1 0 0,1 11.5,7.5A1,1 0 0,1 12.5,6.5M10,11A1,1 0 0,0 9,12V20H7A1,1 0 0,1 6,19V18A1,1 0 0,0 5,17A1,1 0 0,0 4,18V19A3,3 0 0,0 7,22H19A1,1 0 0,0 20,21A1,1 0 0,0 19,20H16V12A1,1 0 0,0 15,11H10Z"/></svg>

<svg fill="currentColor" viewBox="0 0 24 24"><path d="M12.5 2c-1.66 0-3 3.34-3 5a3 3 0 0 0 3 3 3 3 0 0 0 3-3c0-1.66-1.34-5-3-5m0 4.5a1 1 0 0 1 1 1 1 1 0 0 1-1 1 1 1 0 0 1-1-1 1 1 0 0 1 1-1M10 11a1 1 0 0 0-1 1v8H7a1 1 0 0 1-1-1v-1a1 1 0 0 0-1-1 1 1 0 0 0-1 1v1a3 3 0 0 0 3 3h12a1 1 0 0 0 1-1 1 1 0 0 0-1-1h-3v-8a1 1 0 0 0-1-1z"/></svg>
